22x22/actions/edit-select-lasso.svg

<svg xmlns="http://www.w3.org/2000/svg" viewBox="0 0 22 22">
  <defs id="defs3051">
    <style type="text/css" id="current-color-scheme">
      .ColorScheme-Text {
        color:#5d656b;
      }
      </style>
  </defs>
 <path 
    style="fill:currentColor;fill-opacity:1;stroke:none" 
	d="M10.912109 3A8 6.00001 0 0 0 8.494141 3.302734L9.332031 4.144531A7 5 0 0 1 11 3.996094 7 5 0 0 1 11.527344 4.01563L10.912109 3M12.11914 3.0625L12.789062 4.167969A7 5 0 0 1 15.53125 5.185547L16.34375 4.541016A8 6.00001 0 0 0 12.11914 3.0625M7.417969 3.638672A8 6.00001 0 0 0 5.558594 4.607422L6.53125 5.154297A7 5 0 0 1 8.195313 4.421875L7.417969 3.638672M17.1582 5.169922L16.369141 5.796875A7 5 0 0 1 17.16406 6.634766L18.16406 6.341797A8 6.00001 0 0 0 17.1582 5.169922M4.71875 5.28125A8 6.00001 0 0 0 3.685547 6.585938L4.617188 6.953125A7 5 0 0 1 5.628906 5.792969L4.71875 5.28125M18.648438 7.242188L17.681641 7.525391A7 5 0 0 1 17.978516 8.615234L18.984375 8.751953A8 6.00001 0 0 0 18.648438 7.242188M3.261719 7.492188A8 6.00001 0 0 0 3.00391 8.917969L4.00781 8.873047A7 5 0 0 1 4.189453 7.859375L3.261719 7.492188M17.939453 9.619141A7 5 0 0 1 17.351562 11.08594L18.341797 11.361328A8 6.00001 0 0 0 18.925781 9.753906L17.939453 9.619141M4.109375 9.869141L3.103516 9.914063A8 6.00001 0 0 0 3.666016 11.386719L4.576172 10.96875A7 5 0 0 1 4.109375 9.869141M5.197266 11.785156L4.257813 12.214844A8 6.00001 0 0 0 6.0293 13.681641C6.665332 16.05725 4.188846 18.18299 5 18.994141 6.134713 19.10226 6.809163 17.427325 7.082031 15.804688 7.184104 15.665758 7.553027 15.13776 7.849609 14.507812A8 6.00001 0 0 0 10.990234 14.996094L9.923828 13.929688A7 5 0 0 1 8.136719 13.544922C8.144642 13.10087 7.870949 12.821326 7.00195 13 7.00091 12.998623 7.00106 12.995491 7 12.994141 6.920807 12.994141 6.842368 12.978347 6.763672 12.966797A7 5 0 0 1 5.197266 11.785156M16.658203 11.931641A7 5 0 0 1 14.984375 13.09961L15.960938 13.695312A8 6.00001 0 0 0 17.738281 12.232422L16.658203 11.931641M13.824219 13.564453A7 5 0 0 1 11.394531 13.986328L12.316406 14.908203A8 6.00001 0 0 0 14.910156 14.226562L13.824219 13.564453"
    class="ColorScheme-Text"
    />  
</svg>

<svg xmlns="http://www.w3.org/2000/svg" viewBox="0 0 22 22"><path style="fill:currentColor;fill-opacity:1;stroke:none;color:#5d656b" d="M10.912 3a8 6 0 0 0-2.418.303l.838.842A7 5 0 0 1 11 3.996a7 5 0 0 1 .527.02L10.912 3m1.207.063.67 1.105a7 5 0 0 1 2.742 1.018l.813-.645a8 6 0 0 0-4.225-1.479m-4.701.577a8 6 0 0 0-1.86.968l.973.547a7 5 0 0 1 1.664-.732l-.777-.783m9.74 1.53-.789.628a7 5 0 0 1 .795.838l1-.293a8 6 0 0 0-1.006-1.172m-12.44.111a8 6 0 0 0-1.032 1.305l.931.367a7 5 0 0 1 1.012-1.16l-.91-.512m13.93 1.961-.967.283a7 5 0 0 1 .297 1.09l1.005.137a8 6 0 0 0-.336-1.51m-15.386.25a8 6 0 0 0-.258 1.426l1.004-.045a7 5 0 0 1 .181-1.014l-.927-.367M17.939 9.62a7 5 0 0 1-.587 1.467l.99.275a8 6 0 0 0 .584-1.607l-.987-.135m-13.83.25-1.005.045a8 6 0 0 0 .562 1.473l.91-.418a7 5 0 0 1-.467-1.1m1.088 1.916-.94.43a8 6 0 0 0 1.772 1.467c.636 2.375-1.84 4.501-1.029 5.312 1.135.108 1.81-1.567 2.082-3.19.102-.138.471-.666.768-1.296a8 6 0 0 0 3.14.488L9.924 13.93a7 5 0 0 1-1.787-.385c.008-.444-.266-.724-1.135-.545-.001-.001 0-.005-.002-.006-.08 0-.158-.016-.236-.027a7 5 0 0 1-1.567-1.182m11.461.147a7 5 0 0 1-1.674 1.168l.977.595a8 6 0 0 0 1.777-1.463l-1.08-.3m-2.834 1.632a7 5 0 0 1-2.43.422l.922.922a8 6 0 0 0 2.594-.681l-1.086-.663"/></svg>
